.local/share/icons/Gruvbox-Plus-Dark/mimetypes/scalable/application-x-fusioncomp.svg

<svg width="256" height="256" viewBox="0 0 256 256" fill="none" xmlns="http://www.w3.org/2000/svg">
<g opacity="0.4" filter="url(#filter0_f)">
<path d="M55.0839 15.5636H155.608L216.009 75.7129L216.011 224.609C216.011 233.52 208.749 240.737 199.838 240.737H55.0838C46.1734 240.737 39 233.564 39 224.654V31.6474C39 22.737 46.1734 15.5636 55.0838 15.5636H55.0839Z" fill="#282828"/>
</g>
<path d="M55.0839 15H155.608L216.009 75.1493L216.011 224.045C216.011 232.956 208.749 240.174 199.838 240.174H55.0838C46.1734 240.174 39 233 39 224.09V31.0838C39 22.1734 46.1734 15 55.0838 15H55.0839Z" fill="#ebdbb2"/>
<path fill-rule="evenodd" clip-rule="evenodd" d="M155.609 22.9787H55.0839C50.58 22.9787 46.9787 26.5799 46.9787 31.0838V224.09C46.9787 228.594 50.5799 232.195 55.0838 232.195H199.838C204.371 232.195 208.032 228.521 208.032 224.046V75.1493L155.609 22.9787ZM155.608 15H55.0839C46.1735 15 39 22.1734 39 31.0838V224.09C39 233 46.1734 240.174 55.0838 240.174H199.838C208.749 240.174 216.011 232.956 216.011 224.045L216.009 75.1493L155.608 15Z" fill="url(#paint0_linear)"/>
<path d="M129.613 164.021C128.829 164.07 128.047 164.202 127.287 164.406C124.251 165.219 121.575 167.28 120.003 170.003C118.431 172.725 117.989 176.078 118.803 179.115C119.617 182.152 121.677 184.828 124.4 186.4C127.123 187.972 130.476 188.414 133.513 187.6C136.55 186.786 139.225 184.726 140.797 182.003C142.369 179.28 142.811 175.927 141.997 172.89C141.184 169.853 139.123 167.178 136.4 165.606C134.358 164.427 131.965 163.876 129.613 164.021ZM163.373 116.009C159.933 116.103 156.512 117.202 153.726 119.224C150.495 121.569 148.202 124.944 145.682 128.037C144.422 129.584 143.084 131.078 141.538 132.34C139.992 133.603 138.226 134.637 136.297 135.153C134.368 135.669 132.324 135.653 130.353 135.331C128.382 135.01 126.472 134.382 124.606 133.672C120.874 132.251 117.206 130.471 113.234 130.053C107.753 129.476 102.048 131.748 98.4678 135.931C94.8879 140.114 93.535 146.096 94.9614 151.41C96.3878 156.724 100.548 161.218 105.743 163.054C110.938 164.889 117.017 164.011 121.475 160.776C124.706 158.431 126.999 155.056 129.519 151.963C130.779 150.416 132.117 148.922 133.663 147.66C135.209 146.397 136.974 145.363 138.903 144.847C140.833 144.331 142.876 144.347 144.847 144.669C146.818 144.99 148.728 145.618 150.595 146.328C154.327 147.749 157.994 149.529 161.967 149.947C167.448 150.524 173.153 148.252 176.733 144.069C180.313 139.886 181.666 133.904 180.239 128.59C178.813 123.276 174.653 118.782 169.458 116.946C167.509 116.258 165.437 115.952 163.373 116.009V116.009ZM162.361 68.0086C157.773 68.1311 153.212 69.5615 149.498 72.19C145.19 75.238 142.142 79.6346 138.782 83.656C137.101 85.6667 135.311 87.6028 133.25 89.2437C131.189 90.8846 128.838 92.2199 126.266 92.8907C123.693 93.5615 120.971 93.5525 118.343 93.1344C115.715 92.7164 113.162 91.9018 110.674 90.9781C105.698 89.1308 100.802 86.8151 95.5052 86.2717C88.1975 85.5219 80.5902 88.475 75.817 93.9126C71.0439 99.3501 69.2369 107.124 71.1388 114.032C73.0406 120.94 78.6027 126.787 85.5299 129.173C92.457 131.559 100.559 130.416 106.502 126.211C110.81 123.162 113.858 118.766 117.218 114.745C118.899 112.734 120.689 110.798 122.75 109.157C124.811 107.516 127.162 106.181 129.734 105.51C132.307 104.839 135.029 104.848 137.657 105.266C140.285 105.684 142.838 106.499 145.326 107.422C150.302 109.27 155.198 111.585 160.495 112.129C167.803 112.879 175.41 109.925 180.183 104.488C184.956 99.0504 186.763 91.2766 184.861 84.3685C182.959 77.4604 177.397 71.6137 170.47 69.2274C167.872 68.3325 165.113 67.9351 162.361 68.0086V68.0086Z" fill="url(#paint1_linear)"/>
<path opacity="0.25" d="M155.608 17V61.2306C155.608 70.141 162.867 77.1605 171.777 77.1605L216.009 77.1493V75.1493L155.608 17Z" fill="#282828"/>
<path d="M155.608 15V59.2306C155.608 68.141 162.867 75.1605 171.777 75.1605L216.009 75.1493L155.608 15Z" fill="url(#paint2_linear)"/>
<defs>
<filter id="filter0_f" x="23.8778" y="0.441412" width="207.255" height="255.418" filterUnits="userSpaceOnUse" color-interpolation-filters="sRGB">
<feFlood flood-opacity="0" result="BackgroundImageFix"/>
<feBlend mode="normal" in="SourceGraphic" in2="BackgroundImageFix" result="shape"/>
<feGaussianBlur stdDeviation="7.5611" result="effect1_foregroundBlur"/>
</filter>
<linearGradient id="paint0_linear" x1="39" y1="15" x2="39" y2="240.174" gradientUnits="userSpaceOnUse">
<stop offset="1e-07" stop-color="#b16286"/>
<stop offset="1" stop-color="#8f3f71"/>
</linearGradient>
<linearGradient id="paint1_linear" x1="136.065" y1="68" x2="137.315" y2="189.199" gradientUnits="userSpaceOnUse">
<stop stop-color="#fabd2f"/>
<stop offset="1" stop-color="#d79921"/>
</linearGradient>
<linearGradient id="paint2_linear" x1="155.608" y1="15" x2="155.608" y2="75.1605" gradientUnits="userSpaceOnUse">
<stop offset="1e-07" stop-color="#b16286"/>
<stop offset="1" stop-color="#8f3f71"/>
</linearGradient>
</defs>
</svg>

<svg width="256" height="256" fill="none" version="1.1" viewBox="0 0 256 256" xmlns="http://www.w3.org/2000/svg">
  <path d="m55.08 15h100.5l60.4 60.15 2e-3 148.9c0 8.911-7.262 16.13-16.17 16.13h-144.8c-8.91 0-16.08-7.174-16.08-16.08v-193c0-8.91 7.173-16.08 16.08-16.08h1e-4z" fill="#ebdbb2"/>
  <path d="m155.6 22.98h-100.5c-4.504 0-8.105 3.601-8.105 8.105v193c0 4.504 3.601 8.105 8.105 8.105h144.8c4.533 0 8.194-3.674 8.194-8.149v-148.9l-52.42-52.17zm-1e-3 -7.979h-100.5c-8.91 0-16.08 7.173-16.08 16.08v193c0 8.91 7.173 16.08 16.08 16.08h144.8c8.911 0 16.17-7.218 16.17-16.13l-2e-3 -148.9-60.4-60.15z" clip-rule="evenodd" fill="url(#paint0_linear)" fill-rule="evenodd"/>
  <path d="m129.6 164c-0.784 0.049-1.566 0.181-2.326 0.385-3.036 0.813-5.712 2.874-7.284 5.597-1.572 2.722-2.014 6.075-1.2 9.112s2.874 5.713 5.597 7.285 6.076 2.014 9.113 1.2 5.712-2.874 7.284-5.597 2.014-6.076 1.2-9.113c-0.813-3.037-2.874-5.712-5.597-7.284-2.042-1.179-4.435-1.73-6.787-1.585zm33.76-48.01c-3.44 0.094-6.861 1.193-9.647 3.215-3.231 2.345-5.524 5.72-8.044 8.813-1.26 1.547-2.598 3.041-4.144 4.303-1.546 1.263-3.312 2.297-5.241 2.813s-3.973 0.5-5.944 0.178c-1.971-0.321-3.881-0.949-5.747-1.659-3.732-1.421-7.4-3.201-11.37-3.619-5.481-0.577-11.19 1.695-14.77 5.878-3.58 4.183-4.933 10.16-3.506 15.48s5.587 9.808 10.78 11.64c5.195 1.835 11.27 0.957 15.73-2.278 3.231-2.345 5.524-5.72 8.044-8.813 1.26-1.547 2.598-3.041 4.144-4.303 1.546-1.263 3.311-2.297 5.24-2.813 1.93-0.516 3.973-0.5 5.944-0.178 1.971 0.321 3.881 0.949 5.748 1.659 3.732 1.421 7.399 3.201 11.37 3.619 5.481 0.577 11.19-1.695 14.77-5.878s4.933-10.16 3.506-15.48c-1.426-5.314-5.586-9.808-10.78-11.64-1.949-0.688-4.021-0.994-6.085-0.937zm-1.012-48c-4.588 0.1225-9.149 1.553-12.86 4.181-4.308 3.048-7.356 7.445-10.72 11.47-1.681 2.011-3.471 3.947-5.532 5.588s-4.412 2.976-6.984 3.647c-2.573 0.6708-5.295 0.6618-7.923 0.2437-2.628-0.418-5.181-1.233-7.669-2.156-4.976-1.847-9.872-4.163-15.17-4.706-7.308-0.7498-14.92 2.203-19.69 7.641-4.773 5.438-6.58 13.21-4.678 20.12 1.902 6.908 7.464 12.76 14.39 15.14 6.927 2.386 15.03 1.243 20.97-2.962 4.308-3.049 7.356-7.445 10.72-11.47 1.681-2.011 3.471-3.947 5.532-5.588s4.412-2.976 6.984-3.647c2.573-0.671 5.295-0.662 7.923-0.244s5.181 1.233 7.669 2.156c4.976 1.848 9.872 4.163 15.17 4.707 7.308 0.75 14.92-2.204 19.69-7.641 4.773-5.438 6.58-13.21 4.678-20.12s-7.464-12.75-14.39-15.14c-2.598-0.8949-5.357-1.292-8.109-1.219z" fill="url(#paint1_linear)"/>
  <path d="m155.6 17v44.23c0 8.91 7.259 15.93 16.17 15.93l44.23-0.0112v-2l-60.4-58.15z" fill="#282828" opacity=".25"/>
  <path d="m155.6 15v44.23c0 8.91 7.259 15.93 16.17 15.93l44.23-0.0112-60.4-60.15z" fill="url(#paint2_linear)"/>
  <defs>
    <linearGradient id="paint0_linear" x1="39" x2="39" y1="15" y2="240.2" gradientUnits="userSpaceOnUse">
      <stop stop-color="#b16286" offset="1e-7"/>
      <stop stop-color="#8f3f71" offset="1"/>
    </linearGradient>
    <linearGradient id="paint1_linear" x1="136.1" x2="137.3" y1="68" y2="189.2" gradientUnits="userSpaceOnUse">
      <stop stop-color="#fabd2f" offset="0"/>
      <stop stop-color="#d79921" offset="1"/>
    </linearGradient>
    <linearGradient id="paint2_linear" x1="155.6" x2="155.6" y1="15" y2="75.16" gradientUnits="userSpaceOnUse">
      <stop stop-color="#b16286" offset="1e-7"/>
      <stop stop-color="#8f3f71" offset="1"/>
    </linearGradient>
  </defs>
</svg>
